X:186
T: Die Mordeltern
N: Q0085b
O: Mitteleuropa, Schweiz
R: Ballade, Habgier, Mord, Reue, Selbstmord
M: 3/4
L: 1/8
K: G
GGA | AGD2GA | B2z
GFA | AFD2GA | B2z
BBB | dBe2Ac | B
AGB | dBd2Ac | B3

@@@ Tune index: 1241
